X:2
T:Gan Ainm
R:reel
S: Nigel Gatherer <gatherer@argonet.co.uk> scots-l 2002-11-4
Z:Larry Sanger from a tape of a tape of a tape...of John Doherty.
Z:A few variations are not notated here.  John used lots of double
Z:in appropriate places in measures 1 and 5 of the first part, as
Z:you can easily imagine if you've heard John Doherty do this.
M:4/4
K:A
E2|:A2cA EACE|A2ce aeca|fddf edcd|Bcdf efga|
A/A/A cA EACE|A2ce aeca|fddf edce|1 dBGB A2E2:|2 dBGB A2fg||
|:aAgA fAec|defg aeca|fddf ecce|dBBc defg|
aAgA fAec|defg aeca|fddf edce|1 dBGB A2fg:|2 dBGB A2E2||
